X: 308
T: Ivdu [Em]
M: 2/4
L: 1/8
Z: 2008 John Chambers <jc:trillian.mit.edu>
S: Printed MS of unknown origin
K: Em
[| "Em"GE EE | EE EE | "B7"^DE FG | F2 "Em"E2 \
| "G" BG GG | GG GG | "B7"FG AB | A2 "Em"G2 |]
|: "Am"A3 (G/F/) | "Em"GG G2 | "B7"FE (FG) | "Am"(AB) "Em"(G/F/E) \
| "Am"A3 (G/F/) | "Em"GG G2 |1 "Am"(FE) c2 | "B"B4 :|2 "Am"(FE) "B7"(FG) | "Em"E4 |]
